optimized/24/outline/plate-number.svg

<svg viewBox="0 0 24 24" fill="none" xmlns="http://www.w3.org/2000/svg">
  <g clip-path="url(#clip0_4643_42)">
    <path d="M15.7175 3.25C17.3631 3.25 18.9756 4.50799 19.4073 6.09467L19.4503 6.27227L20.3341 10.6328C21.3616 11.0906 22.0862 12.0394 22.2405 13.1217L22.2627 13.3261L22.4758 16.1704C22.5704 17.4267 21.8608 18.5767 20.7795 18.9733C20.5139 20.0134 19.5766 20.75 18.4925 20.75C17.5472 20.75 16.7145 20.1981 16.3404 19.3565L16.3028 19.2631H7.70068L7.66438 19.3565C7.33714 20.0929 6.65862 20.6075 5.86048 20.7246L5.68771 20.7436L5.51178 20.75C4.42793 20.75 3.49144 20.0136 3.28711 19.0437C2.2017 18.6001 1.50655 17.5397 1.52022 16.358L1.52855 16.1705L1.74212 13.3262C1.82444 12.2247 2.49734 11.2356 3.44166 10.7806L3.61105 10.706L4.55453 6.27228C4.89672 4.66265 6.46296 3.34705 8.10473 3.25513L8.2874 3.25H15.7175ZM15.7175 4.72663H8.2874C7.31476 4.72663 6.31655 5.49525 6.03663 6.43057L5.99851 6.57955L5.03108 11.1299L5.01889 11.2784C4.98342 11.5709 4.77846 11.8139 4.4963 11.8983C3.84086 12.0929 3.33759 12.6587 3.23106 13.2989L3.21439 13.4371L3.00082 16.2809C2.94788 16.9873 3.3821 17.5871 4.05939 17.7443C4.34466 17.8109 4.56019 18.0385 4.61587 18.3195L4.62908 18.4272C4.65258 18.902 5.04034 19.2733 5.51181 19.2733C5.93673 19.2733 6.29091 18.9763 6.37518 18.5657L6.39051 18.4608C6.42128 18.1143 6.68771 17.8416 7.02343 17.7949L7.12606 17.7879H16.8784C17.2265 17.7879 17.522 18.0292 17.5979 18.3593L17.6138 18.4608C17.6549 18.9246 18.0325 19.2733 18.4926 19.2733C18.9281 19.2733 19.2922 18.9568 19.3641 18.5346L19.3758 18.427C19.3906 18.1342 19.5759 17.8817 19.8424 17.7766L19.946 17.7443C20.5774 17.5976 20.998 17.0647 21.0078 16.4205L21.0036 16.2809L20.7905 13.437C20.7385 12.7416 20.2109 12.1069 19.5089 11.8983C19.2261 11.814 19.0204 11.5694 18.986 11.2769L18.9727 11.1234L18.0064 6.57958C17.793 5.57833 16.7408 4.72663 15.7175 4.72663ZM6.35038 13.3961C7.1995 13.3961 7.88774 14.0846 7.88774 14.9339C7.88774 15.7835 7.19965 16.4717 6.35038 16.4717C5.50105 16.4717 4.81256 15.7834 4.81256 14.9339C4.81256 14.0847 5.5012 13.3961 6.35038 13.3961ZM17.6545 13.3961C18.504 13.3961 19.1922 14.0846 19.1922 14.9339C19.1922 15.7836 18.5041 16.4717 17.6545 16.4717C16.8052 16.4717 16.1167 15.7834 16.1167 14.9339C16.1167 14.0847 16.8053 13.3961 17.6545 13.3961ZM15.676 6.03894C16.2217 6.03894 16.7499 6.45198 16.903 6.97229L17.7077 10.4717L17.7194 10.6016C17.7249 10.8145 17.6602 11.0077 17.5323 11.1551C17.4072 11.3062 17.2182 11.4003 17.0007 11.4241L16.8897 11.4301H7.11461C6.8492 11.4301 6.6176 11.3301 6.46612 11.148C6.34209 11.0053 6.27921 10.8123 6.28484 10.6029L6.2965 10.4756L6.30695 10.4226L7.07357 7.08992C7.17204 6.5517 7.67112 6.10264 8.21277 6.04516L8.32936 6.03894H15.676ZM15.514 7.51497H8.48943L7.92901 9.95336H16.0744L15.514 7.51497Z" fill="#333333"/>
  </g>
  <defs>
    <clipPath id="clip0_4643_42">
      <rect width="24" height="24" fill="white"/>
    </clipPath>
  </defs>
</svg>

<svg xmlns="http://www.w3.org/2000/svg" width="24" height="24" fill="none">
  <g clip-path="url(#a)">
    <path fill="#333" d="M15.717 3.25c1.646 0 3.259 1.258 3.69 2.845l.043.177.884 4.36c1.028.459 1.752 1.407 1.907 2.49l.022.204.213 2.844c.094 1.257-.615 2.407-1.697 2.803a2.36 2.36 0 0 1-4.439.384l-.037-.094H7.7l-.037.093a2.342 2.342 0 0 1-1.804 1.369l-.172.019-.176.006c-1.084 0-2.02-.736-2.225-1.706a2.85 2.85 0 0 1-1.767-2.686l.009-.188.213-2.844c.082-1.101.755-2.09 1.7-2.545l.169-.075.944-4.434c.342-1.61 1.908-2.925 3.55-3.017l.182-.005h7.43Zm0 1.477h-7.43c-.972 0-1.97.768-2.25 1.704l-.038.149-.968 4.55-.012.148a.74.74 0 0 1-.523.62c-.655.195-1.158.76-1.265 1.4l-.017.14-.213 2.843c-.053.706.381 1.306 1.058 1.463.286.067.501.294.557.576l.013.107a.886.886 0 0 0 .883.846c.425 0 .779-.297.863-.707l.016-.105a.738.738 0 0 1 .632-.666l.103-.007h9.752c.349 0 .644.241.72.571l.016.102a.881.881 0 0 0 1.75.074l.012-.108a.74.74 0 0 1 .466-.65l.104-.033a1.355 1.355 0 0 0 1.062-1.323l-.004-.14-.213-2.844c-.053-.695-.58-1.33-1.282-1.539a.74.74 0 0 1-.523-.621l-.013-.154-.967-4.543c-.213-1.002-1.265-1.853-2.289-1.853Zm-9.367 8.67a1.538 1.538 0 1 1 0 3.074 1.538 1.538 0 0 1 0-3.075Zm11.304 0a1.538 1.538 0 1 1 0 3.074 1.538 1.538 0 0 1 0-3.075Zm-1.978-7.358c.546 0 1.074.413 1.227.933l.805 3.5.011.13a.8.8 0 0 1-.187.553.79.79 0 0 1-.531.27l-.111.005H7.115a.824.824 0 0 1-.649-.282.79.79 0 0 1-.181-.545l.011-.127.01-.053.768-3.333c.098-.538.597-.987 1.139-1.045l.116-.006h7.347Zm-.162 1.476H8.489l-.56 2.438h8.145l-.56-2.438Z"/>
  </g>
  <defs>
    <clipPath id="a">
      <path fill="#fff" d="M0 0h24v24H0z"/>
    </clipPath>
  </defs>
</svg>
